src/icons/svg/ArrowRightThin.svg

<!-- Generated by IcoMoon.io -->
<svg version="1.1" xmlns="http://www.w3.org/2000/svg" width="24" height="24" viewBox="0 0 24 24">
<title>arrow-right-thin</title>
<path fill="#444" d="M17.035 11.467c-0.035-0.033-9.062-8.25-9.062-8.25-0.279-0.279-0.732-0.279-1.011 0s-0.279 0.731 0 1.011l8.479 7.774-8.476 7.774c-0.279 0.279-0.279 0.731 0 1.011 0.279 0.279 0.732 0.279 1.011 0 0 0 9.025-8.219 9.057-8.252 0.147-0.147 0.215-0.341 0.206-0.531 0.008-0.195-0.057-0.392-0.204-0.538z"></path>
</svg>

<svg width="24" height="24" viewBox="0 0 24 24" fill="none" xmlns="http://www.w3.org/2000/svg">
<path d="M17.035 11.467C17 11.434 7.973 3.217 7.973 3.217C7.694 2.938 7.241 2.938 6.962 3.217C6.683 3.496 6.683 3.948 6.962 4.228L15.441 12.002L6.965 19.776C6.686 20.055 6.686 20.507 6.965 20.787C7.244 21.066 7.697 21.066 7.976 20.787C7.976 20.787 17.001 12.568 17.033 12.535C17.18 12.388 17.248 12.194 17.239 12.004C17.247 11.809 17.182 11.612 17.035 11.466V11.467Z" fill="#1C2125"/>
</svg>
